svgs/duotone/transporter-1.svg

<svg xmlns="http://www.w3.org/2000/svg" viewBox="0 0 512 512"><!--! Font Awesome Pro 6.3.0 by @fontawesome - https://fontawesome.com License - https://fontawesome.com/license (Commercial License) Copyright 2023 Fonticons, Inc. --><defs><style>.fa-secondary{opacity:.4}</style></defs><path class="fa-primary" d="M256 96c26.5 0 48-21.5 48-48S282.5 0 256 0S208 21.5 208 48S229.5 96 256 96zM152.6 276.5l31.38-37.75L184 288h144l.0065-49.25l31.38 37.75c11.38 13.5 31.5 15.38 45.13 4.125c13.5-11.38 15.38-31.5 4.125-45.13l-70.5-84.5C326 136.4 308 128 289 128h-66c-19 0-37 8.375-49.12 23l-70.5 84.5c-11.25 13.62-9.5 33.75 4.125 45.13C121.1 291.9 141.3 290 152.6 276.5zM384 448H128c-17.62 0-32 14.38-32 32v32h320v-32C416 462.4 401.6 448 384 448z"/><path class="fa-secondary" d="M93.75 364.4L64 352l-12.38-29.75C50.88 320.9 49.5 320 48 320s-2.875 .875-3.625 2.25L32 352l-29.75 12.38C.875 365.1 0 366.5 0 368s.875 2.875 2.25 3.625L32 384l12.38 29.75C45.13 415.1 46.5 416 48 416s2.875-.875 3.625-2.25L64 384l29.75-12.38C95.13 370.9 96 369.5 96 368S95.13 365.1 93.75 364.4zM509.8 172.4L480 160l-12.38-29.75C466.9 128.9 465.5 128 464 128s-2.875 .875-3.625 2.25L448 160l-29.75 12.38C416.9 173.1 416 174.5 416 176s.875 2.875 2.25 3.625L448 192l12.38 29.75C461.1 223.1 462.5 224 464 224s2.875-.875 3.625-2.25L480 192l29.75-12.38C511.1 178.9 512 177.5 512 176S511.1 173.1 509.8 172.4zM336 320h-160C167.2 320 160 327.2 160 336S167.2 352 176 352h160c8.844 0 16-7.156 16-16S344.8 320 336 320zM336 384h-160C167.2 384 160 391.2 160 400S167.2 416 176 416h160c8.844 0 16-7.156 16-16S344.8 384 336 384z"/></svg>

<svg xmlns="http://www.w3.org/2000/svg" viewBox="0 0 512 512"><!-- Font Awesome Pro 6.0.0-alpha2 by @fontawesome - https://fontawesome.com License - https://fontawesome.com/license (Commercial License) --><defs><style>.fa-secondary{opacity:.4}</style></defs><path d="M93.75 364.375L64 352L51.625 322.25C50.875 320.875 49.5 320 48 320S45.125 320.875 44.375 322.25L32 352L2.25 364.375C0.875 365.125 0 366.5 0 368S0.875 370.875 2.25 371.625L32 384L44.375 413.75C45.125 415.125 46.5 416 48 416S50.875 415.125 51.625 413.75L64 384L93.75 371.625C95.125 370.875 96 369.5 96 368S95.125 365.125 93.75 364.375ZM509.75 172.375L480 160L467.625 130.25C466.875 128.875 465.5 128 464 128S461.125 128.875 460.375 130.25L448 160L418.25 172.375C416.875 173.125 416 174.5 416 176S416.875 178.875 418.25 179.625L448 192L460.375 221.75C461.125 223.125 462.5 224 464 224S466.875 223.125 467.625 221.75L480 192L509.75 179.625C511.125 178.875 512 177.5 512 176S511.125 173.125 509.75 172.375ZM336 320H176C167.156 320 160 327.156 160 336S167.156 352 176 352H336C344.844 352 352 344.844 352 336S344.844 320 336 320ZM336 384H176C167.156 384 160 391.156 160 400S167.156 416 176 416H336C344.844 416 352 408.844 352 400S344.844 384 336 384Z" class="fa-secondary"/><path d="M256.02 96C282.52 96 304.02 74.5 304.02 48S282.52 0 256.02 0S208.02 21.5 208.02 48S229.52 96 256.02 96ZM152.645 276.5L184.02 238.75V288H328.02V238.75L359.395 276.5C370.77 290 390.895 291.875 404.52 280.625C418.02 269.25 419.895 249.125 408.645 235.5L338.145 151C326.02 136.375 308.02 128 289.02 128H223.02C204.02 128 186.02 136.375 173.895 151L103.395 235.5C92.145 249.125 93.895 269.25 107.52 280.625C121.145 291.875 141.27 290 152.645 276.5ZM384.02 448H128.02C110.395 448 96.02 462.375 96.02 480V512H416.02V480C416.02 462.375 401.645 448 384.02 448Z" class="fa-primary"/></svg>
